src/main/resources/icons/AppcodeIcons/icons/AppCodeProject.svg

<svg xmlns="http://www.w3.org/2000/svg" width="16" height="16" viewBox="0 0 16 16"><rect id="frame" width="16" height="16" fill="none"/><g fill="none" fill-rule="evenodd"><path fill="#40B6E0" fill-opacity=".6" d="M7 1L3 5h4z"/><path fill="#40B6E0" fill-opacity=".6" d="M13 9H9v6H3V6h5V1h5v8z"/><path fill="#231F20" d="M10 10h6v6h-6v-6zm1 4v1h3v-1h-3z"/></g></svg>

<svg xmlns="http://www.w3.org/2000/svg" width="16" height="16" viewBox="0 0 16 16">
  <g fill="none" fill-rule="evenodd">
    <polygon fill="#40B6E0" fill-opacity=".6" points="7 1 3 5 7 5"/>
    <path fill="#40B6E0" fill-opacity=".6" d="M13,9 L9,9 L9,15 L3,15 L3,6 L8,6 L8,1 L13,1 L13,9 Z"/>
    <path fill="#231F20" d="M10,10 L16,10 L16,16 L10,16 L10,10 Z M11,14 L11,15 L14,15 L14,14 L11,14 Z"/>
  </g>
</svg>
